map-search.svg

<svg fill="currentColor" viewBox="0 0 24 24"><path d="M15.5 12c2.5 0 4.5 2 4.5 4.5 0 .88-.25 1.71-.69 2.4l3.08 3.1L21 23.39l-3.12-3.07c-.69.43-1.51.68-2.38.68-2.5 0-4.5-2-4.5-4.5s2-4.5 4.5-4.5m0 2a2.5 2.5 0 0 0-2.5 2.5 2.5 2.5 0 0 0 2.5 2.5 2.5 2.5 0 0 0 2.5-2.5 2.5 2.5 0 0 0-2.5-2.5M14 6.11 8 4v11.89l1 .35v.26c0 .64.09 1.26.26 1.84L8 17.9l-5.34 2.07-.16.03a.5.5 0 0 1-.5-.5V4.38c0-.23.15-.41.36-.48L8 2l6 2.1L19.34 2h.16a.5.5 0 0 1 .5.5v9.31A6.48 6.48 0 0 0 15.5 10c-.5 0-1 .06-1.5.17z"/></svg>

<svg  viewBox="0 0 24 24" fill="currentColor"><path  d="M15.5,12C18,12 20,14 20,16.5C20,17.38 19.75,18.21 19.31,18.9L22.39,22L21,23.39L17.88,20.32C17.19,20.75 16.37,21 15.5,21C13,21 11,19 11,16.5C11,14 13,12 15.5,12M15.5,14A2.5,2.5 0 0,0 13,16.5A2.5,2.5 0 0,0 15.5,19A2.5,2.5 0 0,0 18,16.5A2.5,2.5 0 0,0 15.5,14M14,6.11L8,4V15.89L9,16.24V16.5C9,17.14 9.09,17.76 9.26,18.34L8,17.9L2.66,19.97L2.5,20A0.5,0.5 0 0,1 2,19.5V4.38C2,4.15 2.15,3.97 2.36,3.9L8,2L14,4.1L19.34,2H19.5A0.5,0.5 0 0,1 20,2.5V11.81C18.83,10.69 17.25,10 15.5,10C15,10 14.5,10.06 14,10.17V6.11Z"/></svg>
